X: 7798
T:Seumas MacNiel
R:Pipe march
O:Scotland
M:6/8
C:Bobby MacLeod
N:I wouldn't swear by the key ...
K:F#phrygian
e|\
A>AA c2e|f>aa e>aa|c>dB A2c|BGG Bee|\
A>AA c2e|faa eaa|f<af e>cB|cff f2::
e|\
e>fc e2e|fee faa|efd B2g|BGG Bee|\
e>fc e2e|fee faa|faf ecB|cff f2 ::
e|\
A2c A2c|e>fd c2a|c>dB A2c|BGG Bee|\
A2c A2c|e>fd c2e|f<af ecB|cff f2:|
e|\
a<Ae cdB|efd c2e|a<Ae cdc|BGG Bee|\
a<Ae cdB|e>fd c2e|faf ecB|cff f2e |
a<Ae cdB|efd c2e|a<Ae cdc|BGG Bee|\
A>BB B>cc|c<dB c2e|faf ecB|cff f2|]
